X:0229
T:O'er the Hills and far awa.
M:C
L:1/8
Q:1/2=90
I: :: :: :: ::
Z:Jack Campin * www.campin.me.uk * 2009
K:G
DE|G3 A G>ABA|G2E2  E2DE|G3 A  GABG   |B2A2 A2DE|\
   G3 A GABA |G2E2 Tc4  |E2D2 (DE)(GA)|B2A2 A2 :|
Bc|d3 e dcBA |G2E2  E2Bc|d3 e  dBAG   |B2A2 A2Bc|\
   d3 e dcBA |G2E2 Tc4  |E2D2  DEGA   |B2A2 A2 :|
DE|GABA GABA |G2E2  E2DE|GABA  GABG   |B2A2 A2DE|\
   GABA GABG |AGFE Tc4  |E2D2  DEGA   |B2A2 A2 :|
Bc|dgfe dBAB |G2E2  E2Bc|dgfe  dBAG   |B2A2 A2Bc|\
   dgfe dcBA |G2E2 Tc4  |E2D2  DEGA   |B2A2 A2 :|
<end>
<start>
